X:1
T:Title
%%score { ( 1 3 5 ) | ( 2 4 ) }
L:1/8
M:9/8
K:C
V:1 treble nm="Grand Piano"
V:3 treble 
V:5 treble 
V:2 bass 
V:4 bass 
V:1
 z3 z3[Q:1/4=110] [EG][CE][DF] | [EG]3 [Ec]3 [Fd][Ec][DB] | [Ec]3 [CEG]3 [CFA][CAc][CFA] | %3
 [CEG]3 [G,CE]3 [EG][DF][G,CE] |[M:3/4] [B,D]6 |[M:3/8] [CEG][G,CE][G,DF] | %6
[M:9/8] [CEG]3 [Ec]3 [Ge][Fd][Ec] | [Fd]3 [FA]3 [Ac][GB]A | Gce d3 G3 | %9
[M:5/8] [CEc]-[CEc]- [CEc]3 |[M:12/8] z3 z d2- d6 | z3 z [Ec]2- [Ec]3- [Ec] z z | z3 z d2- d6 | %13
 z3 z[K:bass] [CE]2- [CE]6- | [CE]3[K:treble] z G2- G6 | z3 z [Fd]2- [Fd]3- [Fd] [FA]2- | %16
 [FA]3 z G2- G3- G2 z |[M:21/16] z3/2 z3/2 z c-<c-c3/2- c3- | c3- c z/ z3/2 z3/2 z3 |] %19
V:2
 z3 z3 [C,G,][C,G,][C,G,] | [C,C]3 [C,G,]3 [G,,G,]2 [G,,G,] | [C,G,]3 C,3 F,F,F, | %3
 C,3 C,3 C,B,,C, |[M:3/4] G,,B,, D, G,3 |[M:3/8] C,C,C, |[M:9/8] C,3 [C,G,]3 [C,C]2 [C,C] | %7
 [F,A,]3 [F,C]3 [F,C][F,C][K:treble][F,CF] | [G,CE]2 [G,CG] [G,B,F]3 [G,B,F]3 | %9
[M:5/8][K:bass] C,-C,- C,3 |[M:12/8] z3[K:treble] z F2- F6 | z .B,2[K:bass] z3 z6 | %12
 z3[K:treble] z F2- F6 | z .D2[K:bass] z3 z6 | z3[K:treble] z E2- E6[K:bass] | %15
 [C,C] [C,C]2 [C,G,C] [F,A,]2 F, F,2 F, F,2 | z3[K:treble] z E2- E6 | %17
[M:21/16] [G,CG][G,B,F]-<[G,B,F][G,B,F][K:bass][C,G,C]-<[C,G,C][C,G,][C,A,]-<[C,A,][C,A,][C,G,]/- | %18
 [C,G,]3- [C,G,] z/ z3/2 z3/2 z3 |] %19
V:3
 x9 | x9 | x9 | z3 z3 .G,3 |[M:3/4] G,4 z2 |[M:3/8] x3 |[M:9/8] x9 | x9 | x9 |[M:5/8] x5 | %10
[M:12/8] c B2 .c3 B, B,2 B, B,2 | GGA [DFB] C2 C G,2 G, [CEG]2- | [CEG][CEc]B .c3 B, B,2 B, B,2 | %13
 FFA [G,EG][K:bass] G,2 G, G,2 G, G,2- | G,[K:treble]GE .F3 z CC C C2 | %15
 [Ec][Ge][Fd] .[Ec]3 A, A,2 A, C2 | CcB .A3 z CC .C2 c |[M:21/16] ed-<dGE-<EEF-<FFE/- | %18
 E3- E z/ z3/2 z3/2 z3 |] %19
V:4
 x9 | x9 | x9 | x9 |[M:3/4] x6 |[M:3/8] x3 |[M:9/8] x9 | x8[K:treble] x | x9 |[M:5/8][K:bass] x5 | %10
[M:12/8] E D2[K:treble] .E3 G, G,2 G, G,2 | [G,B,F][G,F]-[G,CF][K:bass] G, C,2 C, C,2 C, C,2- | %12
 C,C,[K:treble]D .E3 G, G,2 G, G,2 | [G,B,D][G,B,]-[G,B,F][K:bass] G,, C,2 C, C,2 C, C,2- | %14
 C,[K:treble]EC .D3 z[K:bass] C,C, C, C,2 | x12 | F,[K:treble]AG .F3 z G,G, G, G,2 | %17
[M:21/16] x4[K:bass] x13/2 | x21/2 |] %19
V:5
 x9 | x9 | x9 | x9 |[M:3/4] x6 |[M:3/8] x3 |[M:9/8] x9 | x9 | x9 |[M:5/8] x5 |[M:12/8] x12 | x12 | %12
 x12 | x4[K:bass] x8 | x[K:treble] x11 | x12 | z6 z3 z C2 |[M:21/16] x21/2 | x21/2 |] %19

